icon-themes/breeze_svg/cmd/sc_grid.svg

<svg viewBox="0 0 16 16" xmlns="http://www.w3.org/2000/svg">/&gt;<path d="m2 3v1h1v-1zm4 0v1h1v-1zm3 0v1h1v-1zm4 0v1h1v-1zm-11 2v1h1v-1zm4 0v1h1v-1zm3 0v1h1v-1zm4 0v1h1v-1zm-11 2v1h1v-1zm4 0v1h1v-1zm3 0v1h1v-1zm4 0v1h1v-1zm-11 2v1h1v-1zm4 0v1h1v-1zm3 0v1h1v-1zm4 0v1h1v-1zm-11 2v1h1v-1zm4 0v1h1v-1zm3 0v1h1v-1zm4 0v1h1v-1zm-11 2v1h1v-1zm4 0v1h1v-1zm3 0v1h1v-1zm4 0v1h1v-1z" fill="#4d4d4d"/></svg>

<svg xmlns="http://www.w3.org/2000/svg" viewBox="0 0 16 16">
     />
 <path 
     style="fill:#4d4d4d" 
     d="M 2 3 L 2 4 L 3 4 L 3 3 L 2 3 z M 6 3 L 6 4 L 7 4 L 7 3 L 6 3 z M 9 3 L 9 4 L 10 4 L 10 3 L 9 3 z M 13 3 L 13 4 L 14 4 L 14 3 L 13 3 z M 2 5 L 2 6 L 3 6 L 3 5 L 2 5 z M 6 5 L 6 6 L 7 6 L 7 5 L 6 5 z M 9 5 L 9 6 L 10 6 L 10 5 L 9 5 z M 13 5 L 13 6 L 14 6 L 14 5 L 13 5 z M 2 7 L 2 8 L 3 8 L 3 7 L 2 7 z M 6 7 L 6 8 L 7 8 L 7 7 L 6 7 z M 9 7 L 9 8 L 10 8 L 10 7 L 9 7 z M 13 7 L 13 8 L 14 8 L 14 7 L 13 7 z M 2 9 L 2 10 L 3 10 L 3 9 L 2 9 z M 6 9 L 6 10 L 7 10 L 7 9 L 6 9 z M 9 9 L 9 10 L 10 10 L 10 9 L 9 9 z M 13 9 L 13 10 L 14 10 L 14 9 L 13 9 z M 2 11 L 2 12 L 3 12 L 3 11 L 2 11 z M 6 11 L 6 12 L 7 12 L 7 11 L 6 11 z M 9 11 L 9 12 L 10 12 L 10 11 L 9 11 z M 13 11 L 13 12 L 14 12 L 14 11 L 13 11 z M 2 13 L 2 14 L 3 14 L 3 13 L 2 13 z M 6 13 L 6 14 L 7 14 L 7 13 L 6 13 z M 9 13 L 9 14 L 10 14 L 10 13 L 9 13 z M 13 13 L 13 14 L 14 14 L 14 13 L 13 13 z "
     />
 </svg>
